public/images/s4.svg

<svg width="101" height="92" viewBox="0 0 101 92" fill="none" xmlns="http://www.w3.org/2000/svg">
<path d="M11.1864 81.4284H22.4005M11.1864 71.2923H22.4005M11.1864 61.1562H22.4005M30.7406 90H2.84577C2.37874 90 2 89.6215 2 89.1534V53.431C2 52.9628 2.37874 52.5846 2.84577 52.5846H30.7406C31.2076 52.5846 31.5863 52.9628 31.5863 53.431V62.5947M69.1496 23.9546H61.6573M56.9438 51.1893V56.6138C56.9438 56.9683 57.2323 57.2566 57.5875 57.2566H74.8032M87.3229 23.9546H98.885C99.2402 23.9546 99.5287 24.2429 99.5287 24.5974V56.6137C99.5287 56.9684 99.2402 57.2567 98.885 57.2567H81.4201M72.3081 48.7721V46.5729M78.88 48.7721V43.1467M85.4518 48.7721V39.5063M85.4518 32.4395L72.3082 39.5063M59.8088 87.3444V88.969C59.8088 89.5393 59.3457 90 58.7766 90H30.2696C29.7005 90 29.2374 89.5393 29.2374 88.969V67.0003C29.2374 64.057 31.6275 61.6874 34.573 61.6874H43.382M52.8739 61.6875H58.7766C59.4399 61.6875 60.0777 61.954 60.5663 62.4028L70.5919 71.6469L74.6928 57.5757M74.6928 57.5757C75.2425 55.6905 77.2186 54.6069 79.1064 55.1556C80.9941 55.7044 82.0793 57.6778 81.5299 59.5631M74.6928 57.5757L73.4164 61.9543L80.2534 63.9419L81.5299 59.5631M81.5299 59.5631L76.2396 77.7044C75.3074 80.9049 71.3298 82.008 68.8788 79.7484L59.8088 71.3842V80.4853M63.1017 37.3731C63.6138 36.4322 63.9062 35.3524 63.9062 34.2061V29.6184C63.9062 25.0542 60.1993 21.3542 55.629 21.3542H49.0866C48.1976 21.3542 47.3322 21.0602 46.6258 20.5213L41.8749 16.8897C40.8349 16.0942 39.3337 16.8348 39.3337 18.1441V19.8177C39.3337 20.0096 39.1139 20.1174 38.9608 20.0017L34.889 16.8897C33.8489 16.0942 32.3477 16.8348 32.3477 18.1441V31.7623C32.3477 33.7672 32.9973 35.6172 34.1001 37.1181M50.0618 64.8663L52.399 77.4065C52.45 77.6828 52.3636 77.9652 52.1694 78.1649L48.749 81.6946C48.4095 82.0452 47.8463 82.0452 47.5068 81.6946L44.0865 78.1649C43.8922 77.9652 43.8058 77.6828 43.8569 77.4065L46.194 64.8663M52.8739 54.7677V61.8598C52.8739 62.3813 52.6325 62.8732 52.2185 63.1946L49.165 65.56C48.5547 66.0321 47.7011 66.0321 47.0908 65.56L44.0374 63.1946C43.6234 62.8732 43.382 62.3813 43.382 61.8598V54.7677M37.7775 44.6065H34.7653C32.5106 44.6065 30.6836 42.9192 30.6836 40.836C30.6836 38.7547 32.5106 37.0672 34.7653 37.0672H37.7775M58.4784 37.0673H61.4906C63.7453 37.0673 65.5723 38.7546 65.5723 40.8358C65.5723 42.919 63.7453 44.6066 61.4906 44.6066H58.4784M36.421 89.9994V74.0316M70.044 73.5223L72.3861 65.4889M68.6434 6.28497C66.6059 8.55886 65.3669 11.5612 65.3669 14.8528C65.3669 21.9509 71.1289 27.7055 78.2367 27.7055C85.3443 27.7055 91.1064 21.9509 91.1064 14.8528C91.1064 7.75439 85.3443 2 78.2367 2C76.9306 2 75.67 2.1944 74.4822 2.55558M16.7935 43.3943V37.0673M9.11265 52.585V44.4513C9.11265 43.8677 9.58656 43.3944 10.1711 43.3944H23.416C24.0004 43.3944 24.4743 43.8677 24.4743 44.4513V52.585H9.11265ZM37.7773 30.3756V45.9336C37.7773 51.3288 42.1567 55.7021 47.559 55.7021H48.6968C54.0989 55.7021 58.4783 51.3288 58.4783 45.9336V36.3777C58.4783 32.6836 55.4798 29.6893 51.781 29.6893H38.4647C38.085 29.6893 37.7773 29.9964 37.7773 30.3756ZM74.5607 9.95567V19.7499C74.5607 20.3932 75.2673 20.7873 75.8158 20.4497L83.7739 15.5527C84.2957 15.2315 84.2957 14.474 83.7739 14.1528L75.8158 9.25584C75.2673 8.91837 74.5607 9.31248 74.5607 9.95567Z" stroke="#001489" stroke-width="2.5" stroke-miterlimit="10" stroke-linecap="round" stroke-linejoin="round"/>
</svg>

<svg xmlns="http://www.w3.org/2000/svg" width="101" height="92" fill="none"><path stroke="#001489" stroke-linecap="round" stroke-linejoin="round" stroke-miterlimit="10" stroke-width="2.5" d="M11.186 81.428h11.215M11.186 71.292h11.215M11.186 61.156h11.215M30.74 90H2.846A.846.846 0 0 1 2 89.153V53.431c0-.468.379-.846.846-.846H30.74c.467 0 .845.378.845.846v9.164m37.564-38.64h-7.493m-4.713 27.234v5.425c0 .354.288.643.643.643h17.216m12.52-33.302h11.562c.355 0 .644.288.644.642v32.017a.644.644 0 0 1-.644.643H81.42m-9.112-8.485v-2.2m6.572 2.2v-5.625m6.572 5.625v-9.266m0-7.066-13.144 7.066m-12.5 47.838v1.625c0 .57-.462 1.031-1.031 1.031H30.27c-.57 0-1.033-.46-1.033-1.031V67c0-2.943 2.39-5.313 5.336-5.313h8.809m9.492 0h5.903c.663 0 1.3.267 1.79.716l10.025 9.244 4.1-14.071m0 0a3.56 3.56 0 0 1 4.414-2.42 3.555 3.555 0 0 1 2.424 4.407m-6.837-1.987-1.277 4.378 6.837 1.988 1.277-4.379m0 0-5.29 18.141c-.933 3.2-4.91 4.304-7.361 2.044l-9.07-8.364v9.101m3.293-43.112c.512-.94.804-2.02.804-3.167v-4.588c0-4.564-3.707-8.264-8.277-8.264h-6.542a4.06 4.06 0 0 1-2.461-.833l-4.751-3.631c-1.04-.796-2.541-.055-2.541 1.254v1.674c0 .192-.22.3-.373.184l-4.072-3.112c-1.04-.796-2.541-.055-2.541 1.254v13.618c0 2.005.65 3.855 1.752 5.356m15.962 27.748 2.337 12.54a.86.86 0 0 1-.23.759l-3.42 3.53a.865.865 0 0 1-1.242 0l-3.42-3.53a.86.86 0 0 1-.23-.759l2.337-12.54m6.68-10.098v7.092a1.69 1.69 0 0 1-.656 1.335l-3.053 2.365a1.696 1.696 0 0 1-2.074 0l-3.054-2.365a1.69 1.69 0 0 1-.655-1.335v-7.092m-5.604-10.162h-3.013c-2.254 0-4.081-1.687-4.081-3.77 0-2.081 1.827-3.769 4.081-3.769h3.013m20.7 0h3.013c2.254 0 4.081 1.688 4.081 3.769 0 2.083-1.827 3.77-4.081 3.77h-3.013M36.421 90V74.032m33.623-.51 2.342-8.033M68.643 6.285a12.8 12.8 0 0 0-3.276 8.568c0 7.098 5.762 12.853 12.87 12.853s12.87-5.755 12.87-12.853C91.106 7.754 85.343 2 78.236 2c-1.306 0-2.567.194-3.755.556M16.794 43.394v-6.327M9.113 52.585v-8.134c0-.583.474-1.057 1.058-1.057h13.245c.584 0 1.058.474 1.058 1.057v8.134zm28.664-22.21v15.559c0 5.395 4.38 9.768 9.782 9.768h1.138c5.402 0 9.781-4.373 9.781-9.768v-9.556a6.693 6.693 0 0 0-6.697-6.689H38.465a.687.687 0 0 0-.688.687m36.784-20.42v9.795a.823.823 0 0 0 1.255.7l7.958-4.897a.822.822 0 0 0 0-1.4l-7.958-4.897a.823.823 0 0 0-1.255.7"/></svg>
